X:1
T:Little Sir Hugh
M:6/8
L:1/8
K:G
B/2-c/2|d-e dB-A B| GGD D2B/2-c/2|d-e dB-A G| A3- A2 A|d-e dB-A B|\
 G2 D D2 D|G-A Bc-B A| G3- G2||

